cssgg/play-list-add.svg

<svg viewBox="0 0 24 24" xmlns="http://www.w3.org/2000/svg"><g><path d="M2 5h12v2H2V5Z"/><path d="M2 9h12v2H2V9Z"/><path d="M10 13H2v2h8v-2Z"/><path d="M16 9h2v4h4v2h-4v4h-2v-4h-4v-2h4V9Z"/></g></svg>

<svg
  width="24"
  height="24"
  viewBox="0 0 24 24"
  fill="none"
  xmlns="http://www.w3.org/2000/svg"
>
  <path d="M2 5H14V7H2V5Z" fill="currentColor" />
  <path d="M2 9H14V11H2V9Z" fill="currentColor" />
  <path d="M10 13H2V15H10V13Z" fill="currentColor" />
  <path d="M16 9H18V13H22V15H18V19H16V15H12V13H16V9Z" fill="currentColor" />
</svg>
